!!!OTL: Bold Pedlar and Robin Hood
!!!ONM: 6.
**kern
*clefG2
!Modal -- Conklin/Pearce 
*k[b-e-a-]
*f:
*M3/4
*MM84
{8c
=1
8f
8cc
4cc
(8b-
8cc)
=2
8g
8f
4.f}
{8b-
=3
8cc
(16dd
16ee-)
4.ff
(16ee-
16ff)
=4
8gg
8ee-
4.ff}
{(16ee-
16ff)
=5
8gg
8ff
4ee-
(8dd
8ee-)
=6
(16cc
16b-)
8g
4.e-}
{16f
16f
=7
8g
8cc
(16cc
16b-)
8cc
8g
8f
=8
2f
8r}
==
*-
!!!CNT: Folksongs of Maritime Canada
!!!MRD: 1928///-1932///
!!!OCL: Helen Creighton
!!!YOR: Songs and Ballads from Nova Scotia
!!!PPR: J.M. Dent & Sons, Limited
!!!PPP: Toronto, Canada
!!!PDT: 1932///
!!!reprint: Dover Publications, 1992: ISBN 0-486-21703-5
!!!ENC1: Craig Stuart Sapp (music and bibliographic data)                       
!!!ENC2: Marcus Pearce (phrase markings and key designations)                   
!!!ENC3: Darrell Conklin (phrase markings and key designations)   
!!!END: 2002/04/10/
!!!EEV: 2004/06/05
!!!MPN: Mr. Ben Henneberry
!!!PPG: 12
!!!EFL: 6/152
!!!ARE: Canada; Nova Scotia
!!!verses: 8
!!!VTS: 3712528042
